img/calculation_types/some_file.svg

<svg width="179" height="42" viewBox="0 0 179 42" fill="none" xmlns="http://www.w3.org/2000/svg">
<path d="M0 5C0 2.23858 2.23858 0 5 0H174C176.761 0 179 2.23858 179 5V37C179 39.7614 176.761 42 174 42H5C2.23857 42 0 39.7614 0 37V5Z" fill="#EBEBEB"/>
<path d="M26.6914 16.6387C26.8086 16.7559 26.875 16.9141 26.875 17.0801V29.125C26.875 29.4707 26.5957 29.75 26.25 29.75H13.75C13.4043 29.75 13.125 29.4707 13.125 29.125V12.875C13.125 12.5293 13.4043 12.25 13.75 12.25H22.0449C22.2109 12.25 22.3711 12.3164 22.4883 12.4336L26.6914 16.6387ZM25.4336 17.3672L21.7578 13.6914V17.3672H25.4336ZM22.3676 23.4465C22.0711 23.4367 21.7559 23.4596 21.3979 23.5043C20.9232 23.2115 20.6037 22.8094 20.3768 22.2186L20.3977 22.133L20.4219 22.0318C20.5059 21.6777 20.551 21.4193 20.5645 21.1588C20.5746 20.9621 20.5637 20.7807 20.5287 20.6125C20.4643 20.2494 20.2074 20.0371 19.8838 20.024C19.582 20.0117 19.3047 20.1803 19.2338 20.4414C19.1184 20.8637 19.1859 21.4193 19.4307 22.367C19.1189 23.1102 18.707 23.9814 18.4307 24.4674C18.0617 24.6576 17.7744 24.8307 17.533 25.0225C17.2146 25.2758 17.0158 25.5361 16.9611 25.8096C16.9346 25.9363 16.9746 26.102 17.0658 26.2377C17.1693 26.3916 17.3252 26.4916 17.5121 26.5061C17.9838 26.5426 18.5635 26.0563 19.2035 24.958C19.2678 24.9365 19.3357 24.9139 19.4187 24.8857L19.6512 24.8072C19.7982 24.7576 19.9049 24.7221 20.0104 24.6879C20.4674 24.5391 20.8131 24.4451 21.1275 24.3916C21.674 24.6842 22.3057 24.876 22.7311 24.876C23.0822 24.876 23.3195 24.6939 23.4053 24.4074C23.4805 24.1559 23.4209 23.8641 23.2592 23.7027C23.092 23.5385 22.7846 23.46 22.3676 23.4465ZM17.524 25.9547V25.9477L17.5266 25.941C17.5551 25.8671 17.5918 25.7967 17.6359 25.7309C17.7195 25.6023 17.8346 25.4672 17.9771 25.3232C18.0537 25.2461 18.1334 25.1709 18.227 25.0865C18.2479 25.0678 18.3814 24.9488 18.4064 24.9254L18.6246 24.7223L18.466 24.9748C18.2254 25.3584 18.0078 25.6346 17.8215 25.8146C17.7529 25.8811 17.6926 25.9299 17.6437 25.9613C17.6276 25.9721 17.6106 25.9814 17.5928 25.9891C17.5848 25.9924 17.5777 25.9943 17.5707 25.9949C17.5633 25.9959 17.5557 25.9949 17.5488 25.992C17.5415 25.9889 17.5352 25.9837 17.5308 25.9771C17.5264 25.9705 17.524 25.9627 17.524 25.9547ZM19.9838 21.6914L19.9396 21.7695L19.9123 21.684C19.8518 21.492 19.8072 21.2027 19.7949 20.9418C19.7809 20.6449 19.8045 20.4668 19.8982 20.4668C20.0299 20.4668 20.0902 20.6777 20.0949 20.9951C20.0992 21.274 20.0553 21.5643 19.9836 21.6914H19.9838ZM19.8703 22.8332L19.9002 22.7541L19.941 22.8283C20.1693 23.2432 20.4656 23.5893 20.7914 23.8305L20.8617 23.8824L20.776 23.9C20.457 23.966 20.16 24.0652 19.7537 24.2291C19.7961 24.2119 19.3314 24.4021 19.2139 24.4473L19.1113 24.4865L19.166 24.3912C19.4072 23.9713 19.6301 23.467 19.8701 22.8332H19.8703ZM22.9488 24.3227C22.7953 24.3832 22.4648 24.3291 21.883 24.0807L21.7354 24.0178L21.8955 24.0061C22.3506 23.9723 22.6729 23.9973 22.8607 24.066C22.9408 24.0953 22.9941 24.1322 23.0178 24.1744C23.0302 24.1944 23.0344 24.2184 23.0294 24.2414C23.0245 24.2644 23.0108 24.2846 22.9912 24.2977C22.9788 24.3086 22.9644 24.3171 22.9488 24.3227Z" fill="#DB4212"/>
<path d="M44.344 26H42.696L38.648 21.2L37.576 22.416V26H36.248V15.328H37.576V20.848L42.296 15.328H43.96L39.512 20.4L44.344 26ZM51.5758 26H50.3758V25.12C49.7251 25.8347 48.8718 26.192 47.8158 26.192C47.1011 26.192 46.4718 25.9627 45.9278 25.504C45.3838 25.0453 45.1118 24.4213 45.1118 23.632C45.1118 22.8213 45.3784 22.1973 45.9118 21.76C46.4558 21.312 47.0904 21.088 47.8158 21.088C48.9144 21.088 49.7678 21.44 50.3758 22.144V20.752C50.3758 20.24 50.1944 19.84 49.8318 19.552C49.4691 19.264 48.9998 19.12 48.4238 19.12C47.5171 19.12 46.7278 19.4773 46.0558 20.192L45.4958 19.36C46.3171 18.5067 47.3464 18.08 48.5838 18.08C49.4691 18.08 50.1891 18.2933 50.7438 18.72C51.2984 19.1467 51.5758 19.8027 51.5758 20.688V26ZM48.2478 25.328C49.2078 25.328 49.9171 25.008 50.3758 24.368V22.912C49.9171 22.272 49.2078 21.952 48.2478 21.952C47.6931 21.952 47.2344 22.112 46.8718 22.432C46.5198 22.7413 46.3438 23.1467 46.3438 23.648C46.3438 24.1387 46.5198 24.544 46.8718 24.864C47.2344 25.1733 47.6931 25.328 48.2478 25.328ZM60.7812 26H59.2453L56.4613 22.528L55.1813 23.792V26H53.9813V18.272H55.1813V22.384L59.2453 18.272H60.7653L57.3413 21.776L60.7812 26ZM68.2971 25.024C67.6038 25.8027 66.6811 26.192 65.5291 26.192C64.3771 26.192 63.4491 25.8027 62.7451 25.024C62.0518 24.2453 61.7051 23.28 61.7051 22.128C61.7051 20.976 62.0518 20.016 62.7451 19.248C63.4491 18.4693 64.3771 18.08 65.5291 18.08C66.6811 18.08 67.6038 18.4693 68.2971 19.248C69.0011 20.016 69.3531 20.976 69.3531 22.128C69.3531 23.28 69.0011 24.2453 68.2971 25.024ZM63.6411 24.256C64.1105 24.832 64.7398 25.12 65.5291 25.12C66.3185 25.12 66.9425 24.832 67.4011 24.256C67.8598 23.6693 68.0891 22.96 68.0891 22.128C68.0891 21.296 67.8598 20.592 67.4011 20.016C66.9425 19.44 66.3185 19.152 65.5291 19.152C64.7398 19.152 64.1105 19.4453 63.6411 20.032C63.1825 20.608 62.9531 21.3067 62.9531 22.128C62.9531 22.96 63.1825 23.6693 63.6411 24.256ZM72.4614 26H71.3094V18.272H72.5094V24.176L76.5574 18.272H77.7414V26H76.5414V19.984L72.4614 26ZM77.3254 15.984C76.632 16.9227 75.6987 17.392 74.5254 17.392C73.3627 17.392 72.424 16.9227 71.7094 15.984L72.3014 15.472C72.856 16.24 73.5974 16.624 74.5254 16.624C75.464 16.624 76.2 16.24 76.7334 15.472L77.3254 15.984ZM86.8705 26H85.6705V19.328H83.4305V18.272H89.1265V19.328H86.8705V26ZM96.844 25.024C96.1507 25.8027 95.228 26.192 94.076 26.192C92.924 26.192 91.996 25.8027 91.292 25.024C90.5987 24.2453 90.252 23.28 90.252 22.128C90.252 20.976 90.5987 20.016 91.292 19.248C91.996 18.4693 92.924 18.08 94.076 18.08C95.228 18.08 96.1507 18.4693 96.844 19.248C97.548 20.016 97.9 20.976 97.9 22.128C97.9 23.28 97.548 24.2453 96.844 25.024ZM92.188 24.256C92.6573 24.832 93.2867 25.12 94.076 25.12C94.8653 25.12 95.4893 24.832 95.948 24.256C96.4067 23.6693 96.636 22.96 96.636 22.128C96.636 21.296 96.4067 20.592 95.948 20.016C95.4893 19.44 94.8653 19.152 94.076 19.152C93.2867 19.152 92.6573 19.4453 92.188 20.032C91.7293 20.608 91.5 21.3067 91.5 22.128C91.5 22.96 91.7293 23.6693 92.188 24.256ZM106.461 18.08C107.336 18.08 108.04 18.5333 108.573 19.44V15.328H109.773V19.424C110.008 19.0187 110.307 18.6933 110.669 18.448C111.043 18.2027 111.443 18.08 111.869 18.08C112.701 18.08 113.373 18.448 113.885 19.184C114.397 19.9093 114.653 20.8907 114.653 22.128C114.653 23.3653 114.392 24.352 113.869 25.088C113.357 25.824 112.691 26.192 111.869 26.192C110.995 26.192 110.296 25.7387 109.773 24.832V28.944H108.573V24.848C108.339 25.2533 108.035 25.5787 107.661 25.824C107.288 26.0693 106.888 26.192 106.461 26.192C105.629 26.192 104.957 25.8293 104.445 25.104C103.933 24.368 103.677 23.3813 103.677 22.144C103.677 20.9067 103.933 19.92 104.445 19.184C104.968 18.448 105.64 18.08 106.461 18.08ZM106.797 19.152C106.211 19.152 105.747 19.4347 105.405 20C105.064 20.5547 104.893 21.2693 104.893 22.144C104.893 23.0187 105.064 23.7333 105.405 24.288C105.747 24.8427 106.211 25.12 106.797 25.12C107.16 25.12 107.507 25.0027 107.837 24.768C108.168 24.5333 108.413 24.24 108.573 23.888V20.4C108.403 20.048 108.152 19.7547 107.821 19.52C107.491 19.2747 107.149 19.152 106.797 19.152ZM111.533 25.12C112.12 25.12 112.584 24.8427 112.925 24.288C113.267 23.7227 113.437 23.0027 113.437 22.128C113.437 21.2533 113.267 20.5387 112.925 19.984C112.584 19.4293 112.12 19.152 111.533 19.152C111.181 19.152 110.84 19.2747 110.509 19.52C110.179 19.7547 109.933 20.0427 109.773 20.384V23.872C109.944 24.224 110.189 24.5227 110.509 24.768C110.84 25.0027 111.181 25.12 111.533 25.12ZM122.779 26H121.579V25.12C120.928 25.8347 120.075 26.192 119.019 26.192C118.304 26.192 117.675 25.9627 117.131 25.504C116.587 25.0453 116.315 24.4213 116.315 23.632C116.315 22.8213 116.582 22.1973 117.115 21.76C117.659 21.312 118.294 21.088 119.019 21.088C120.118 21.088 120.971 21.44 121.579 22.144V20.752C121.579 20.24 121.398 19.84 121.035 19.552C120.672 19.264 120.203 19.12 119.627 19.12C118.72 19.12 117.931 19.4773 117.259 20.192L116.699 19.36C117.52 18.5067 118.55 18.08 119.787 18.08C120.672 18.08 121.392 18.2933 121.947 18.72C122.502 19.1467 122.779 19.8027 122.779 20.688V26ZM119.451 25.328C120.411 25.328 121.12 25.008 121.579 24.368V22.912C121.12 22.272 120.411 21.952 119.451 21.952C118.896 21.952 118.438 22.112 118.075 22.432C117.723 22.7413 117.547 23.1467 117.547 23.648C117.547 24.1387 117.723 24.544 118.075 24.864C118.438 25.1733 118.896 25.328 119.451 25.328ZM126.336 26H125.184V18.272H126.384V24.176L130.432 18.272H131.616V26H130.416V19.984L126.336 26ZM131.2 15.984C130.507 16.9227 129.574 17.392 128.4 17.392C127.238 17.392 126.299 16.9227 125.584 15.984L126.176 15.472C126.731 16.24 127.472 16.624 128.4 16.624C129.339 16.624 130.075 16.24 130.608 15.472L131.2 15.984ZM133.101 26.192V25.2C133.463 25.2 133.762 24.96 133.997 24.48C134.231 24 134.423 23.2 134.573 22.08L135.069 18.272H140.445V26H139.245V19.328H136.125L135.773 22.224C135.602 23.6427 135.303 24.6613 134.877 25.28C134.45 25.888 133.858 26.192 133.101 26.192ZM144.105 25.904C143.934 26.0747 143.726 26.16 143.481 26.16C143.235 26.16 143.027 26.0747 142.857 25.904C142.686 25.7333 142.601 25.5253 142.601 25.28C142.601 25.0347 142.686 24.8267 142.857 24.656C143.027 24.4853 143.235 24.4 143.481 24.4C143.726 24.4 143.934 24.4853 144.105 24.656C144.275 24.8267 144.361 25.0347 144.361 25.28C144.361 25.5253 144.275 25.7333 144.105 25.904ZM150.336 26.192C149.248 26.192 148.379 25.7387 147.728 24.832V28.944H146.528V18.272H147.728V19.424C148.016 19.0187 148.389 18.6933 148.848 18.448C149.307 18.2027 149.803 18.08 150.336 18.08C151.36 18.08 152.187 18.448 152.816 19.184C153.456 19.9093 153.776 20.8907 153.776 22.128C153.776 23.3653 153.456 24.352 152.816 25.088C152.187 25.824 151.36 26.192 150.336 26.192ZM150.032 25.12C150.789 25.12 151.392 24.8427 151.84 24.288C152.288 23.7227 152.512 23.0027 152.512 22.128C152.512 21.2533 152.288 20.5387 151.84 19.984C151.392 19.4293 150.789 19.152 150.032 19.152C149.573 19.152 149.125 19.2747 148.688 19.52C148.261 19.7547 147.941 20.0427 147.728 20.384V23.872C147.941 24.224 148.261 24.5227 148.688 24.768C149.125 25.0027 149.573 25.12 150.032 25.12ZM162.484 26H161.284V24.848C160.623 25.744 159.754 26.192 158.676 26.192C157.652 26.192 156.82 25.8293 156.18 25.104C155.551 24.368 155.236 23.3813 155.236 22.144C155.236 20.9173 155.551 19.936 156.18 19.2C156.82 18.4533 157.652 18.08 158.676 18.08C159.743 18.08 160.612 18.5333 161.284 19.44V15.328H162.484V26ZM158.964 25.12C159.434 25.12 159.882 25.0027 160.308 24.768C160.735 24.5333 161.06 24.2453 161.284 23.904V20.4C161.06 20.048 160.73 19.7547 160.292 19.52C159.866 19.2747 159.423 19.152 158.964 19.152C158.207 19.152 157.604 19.4347 157.156 20C156.708 20.5547 156.484 21.2693 156.484 22.144C156.484 23.0187 156.708 23.7333 157.156 24.288C157.604 24.8427 158.207 25.12 158.964 25.12ZM166.424 26H165.224V19.328H163.944V18.272H165.224V17.68C165.224 16.8907 165.421 16.2773 165.816 15.84C166.221 15.392 166.77 15.168 167.464 15.168C168.125 15.168 168.669 15.3653 169.096 15.76L168.6 16.544C168.312 16.288 167.992 16.16 167.64 16.16C167.245 16.16 166.941 16.2933 166.728 16.56C166.525 16.816 166.424 17.1893 166.424 17.68V18.272H167.992V19.328H166.424V26Z" fill="#1A1A1A"/>
<path d="M5 1H174V-1H5V1ZM178 5V37H180V5H178ZM174 41H5V43H174V41ZM1 37V5H-1V37H1ZM5 41C2.79086 41 1 39.2091 1 37H-1C-1 40.3137 1.68629 43 5 43V41ZM178 37C178 39.2091 176.209 41 174 41V43C177.314 43 180 40.3137 180 37H178ZM174 1C176.209 1 178 2.79086 178 5H180C180 1.68629 177.314 -1 174 -1V1ZM5 -1C1.68629 -1 -1 1.68629 -1 5H1C1 2.79086 2.79086 1 5 1V-1Z" fill="#DCDCDC"/>
</svg>

<svg width="179" height="42" fill="none" xmlns="http://www.w3.org/2000/svg"><path d="M0 5a5 5 0 015-5h169a5 5 0 015 5v32a5 5 0 01-5 5H5a5 5 0 01-5-5V5z" fill="#EBEBEB"/><path d="M26.691 16.639a.624.624 0 01.184.441v12.045c0 .346-.28.625-.625.625h-12.5a.624.624 0 01-.625-.625v-16.25c0-.346.28-.625.625-.625h8.295c.166 0 .326.066.443.184l4.203 4.205zm-1.257.728l-3.676-3.676v3.676h3.676zm-3.066 6.08a6.193 6.193 0 00-.97.057c-.475-.293-.794-.695-1.021-1.285l.02-.086.025-.101a4.76 4.76 0 00.142-.873c.01-.197 0-.378-.035-.546-.065-.364-.322-.576-.645-.589-.302-.012-.58.156-.65.417-.116.423-.048.978.197 1.926-.312.743-.724 1.614-1 2.1-.37.19-.657.364-.898.556-.318.253-.517.513-.572.787a.596.596 0 00.105.428c.103.154.26.254.446.268.472.037 1.052-.45 1.691-1.548l.216-.072.232-.079.36-.12a7.936 7.936 0 011.117-.295c.546.292 1.178.484 1.603.484.351 0 .588-.182.674-.469.075-.251.016-.543-.146-.704-.167-.165-.474-.243-.891-.256zm-4.844 2.508v-.007l.003-.007c.028-.074.065-.144.109-.21.084-.129.199-.264.341-.408.077-.077.156-.152.25-.236.02-.02.154-.138.18-.162l.218-.203-.159.253c-.24.383-.458.66-.645.84a1.203 1.203 0 01-.177.146.318.318 0 01-.051.028.074.074 0 01-.022.006.04.04 0 01-.047-.04zm2.46-4.264l-.044.079-.028-.086a3.224 3.224 0 01-.117-.742c-.014-.297.01-.475.103-.475.132 0 .192.21.197.528.004.279-.04.57-.111.696zm-.114 1.142l.03-.079.041.074c.228.415.525.761.85 1.003l.07.051-.085.018a5.763 5.763 0 00-1.022.33c.042-.018-.423.172-.54.217l-.103.04.055-.096c.241-.42.464-.924.704-1.558zm3.079 1.49c-.154.06-.484.006-1.066-.242l-.148-.063.16-.012c.456-.034.778-.009.966.06.08.03.133.066.157.108a.09.09 0 01-.027.124.132.132 0 01-.042.025z" fill="#DB4212"/><path d="M44.344 26h-1.648l-4.048-4.8-1.072 1.216V26h-1.328V15.328h1.328v5.52l4.72-5.52h1.664L39.512 20.4l4.832 5.6zm7.232 0h-1.2v-.88c-.65.715-1.504 1.072-2.56 1.072-.715 0-1.344-.23-1.888-.688-.544-.459-.816-1.083-.816-1.872 0-.81.266-1.435.8-1.872a2.905 2.905 0 011.904-.672c1.098 0 1.952.352 2.56 1.056v-1.392c0-.512-.182-.912-.544-1.2-.363-.288-.832-.432-1.408-.432-.907 0-1.696.357-2.368 1.072l-.56-.832c.821-.853 1.85-1.28 3.088-1.28.885 0 1.605.213 2.16.64.554.427.832 1.083.832 1.968V26zm-3.328-.672c.96 0 1.67-.32 2.128-.96v-1.456c-.459-.64-1.168-.96-2.128-.96-.555 0-1.014.16-1.376.48-.352.31-.528.715-.528 1.216 0 .49.176.896.528 1.216.362.31.821.464 1.376.464zM60.78 26h-1.536l-2.784-3.472-1.28 1.264V26h-1.2v-7.728h1.2v4.112l4.064-4.112h1.52l-3.424 3.504L60.781 26zm7.516-.976c-.693.779-1.616 1.168-2.768 1.168-1.152 0-2.08-.39-2.784-1.168-.693-.779-1.04-1.744-1.04-2.896s.347-2.112 1.04-2.88c.704-.779 1.632-1.168 2.784-1.168s2.075.39 2.768 1.168c.704.768 1.056 1.728 1.056 2.88s-.352 2.117-1.056 2.896zm-4.656-.768c.47.576 1.099.864 1.888.864.79 0 1.413-.288 1.872-.864.459-.587.688-1.296.688-2.128 0-.832-.23-1.536-.688-2.112-.459-.576-1.082-.864-1.872-.864s-1.418.293-1.888.88c-.459.576-.688 1.275-.688 2.096 0 .832.23 1.541.688 2.128zM72.461 26H71.31v-7.728h1.2v5.904l4.048-5.904h1.184V26h-1.2v-6.016L72.461 26zm4.864-10.016c-.693.939-1.626 1.408-2.8 1.408-1.162 0-2.101-.47-2.816-1.408l.592-.512c.555.768 1.296 1.152 2.224 1.152.939 0 1.675-.384 2.208-1.152l.592.512zM86.871 26h-1.2v-6.672h-2.24v-1.056h5.695v1.056h-2.255V26zm9.973-.976c-.693.779-1.616 1.168-2.768 1.168-1.152 0-2.08-.39-2.784-1.168-.693-.779-1.04-1.744-1.04-2.896s.347-2.112 1.04-2.88c.704-.779 1.632-1.168 2.784-1.168s2.075.39 2.768 1.168c.704.768 1.056 1.728 1.056 2.88s-.352 2.117-1.056 2.896zm-4.656-.768c.47.576 1.099.864 1.888.864.79 0 1.413-.288 1.872-.864.459-.587.688-1.296.688-2.128 0-.832-.23-1.536-.688-2.112-.459-.576-1.083-.864-1.872-.864-.79 0-1.419.293-1.888.88-.459.576-.688 1.275-.688 2.096 0 .832.23 1.541.688 2.128zm14.273-6.176c.875 0 1.579.453 2.112 1.36v-4.112h1.2v4.096c.235-.405.534-.73.896-.976a2.149 2.149 0 011.2-.368c.832 0 1.504.368 2.016 1.104.512.725.768 1.707.768 2.944 0 1.237-.261 2.224-.784 2.96-.512.736-1.178 1.104-2 1.104-.874 0-1.573-.453-2.096-1.36v4.112h-1.2v-4.096a2.86 2.86 0 01-.912.976 2.144 2.144 0 01-1.2.368c-.832 0-1.504-.363-2.016-1.088-.512-.736-.768-1.723-.768-2.96 0-1.237.256-2.224.768-2.96.523-.736 1.195-1.104 2.016-1.104zm.336 1.072c-.586 0-1.05.283-1.392.848-.341.555-.512 1.27-.512 2.144 0 .875.171 1.59.512 2.144.342.555.806.832 1.392.832.363 0 .71-.117 1.04-.352.331-.235.576-.528.736-.88V20.4a2.286 2.286 0 00-.752-.88c-.33-.245-.672-.368-1.024-.368zm4.736 5.968c.587 0 1.051-.277 1.392-.832.342-.565.512-1.285.512-2.16 0-.875-.17-1.59-.512-2.144-.341-.555-.805-.832-1.392-.832-.352 0-.693.123-1.024.368a2.2 2.2 0 00-.736.864v3.488c.171.352.416.65.736.896.331.235.672.352 1.024.352zm11.246.88h-1.2v-.88c-.651.715-1.504 1.072-2.56 1.072-.715 0-1.344-.23-1.888-.688-.544-.459-.816-1.083-.816-1.872 0-.81.267-1.435.8-1.872a2.906 2.906 0 011.904-.672c1.099 0 1.952.352 2.56 1.056v-1.392c0-.512-.181-.912-.544-1.2-.363-.288-.832-.432-1.408-.432-.907 0-1.696.357-2.368 1.072l-.56-.832c.821-.853 1.851-1.28 3.088-1.28.885 0 1.605.213 2.16.64.555.427.832 1.083.832 1.968V26zm-3.328-.672c.96 0 1.669-.32 2.128-.96v-1.456c-.459-.64-1.168-.96-2.128-.96-.555 0-1.013.16-1.376.48-.352.31-.528.715-.528 1.216 0 .49.176.896.528 1.216.363.31.821.464 1.376.464zm6.885.672h-1.152v-7.728h1.2v5.904l4.048-5.904h1.184V26h-1.2v-6.016L126.336 26zm4.864-10.016c-.693.939-1.626 1.408-2.8 1.408-1.162 0-2.101-.47-2.816-1.408l.592-.512c.555.768 1.296 1.152 2.224 1.152.939 0 1.675-.384 2.208-1.152l.592.512zm1.901 10.208V25.2c.362 0 .661-.24.896-.72.234-.48.426-1.28.576-2.4l.496-3.808h5.376V26h-1.2v-6.672h-3.12l-.352 2.896c-.171 1.419-.47 2.437-.896 3.056-.427.608-1.019.912-1.776.912zm11.004-.288a.85.85 0 01-.624.256.847.847 0 01-.624-.256.848.848 0 01-.256-.624c0-.245.085-.453.256-.624a.847.847 0 01.624-.256.85.85 0 01.624.256c.17.17.256.379.256.624a.852.852 0 01-.256.624zm6.231.288c-1.088 0-1.957-.453-2.608-1.36v4.112h-1.2V18.272h1.2v1.152c.288-.405.661-.73 1.12-.976a3.108 3.108 0 011.488-.368c1.024 0 1.851.368 2.48 1.104.64.725.96 1.707.96 2.944 0 1.237-.32 2.224-.96 2.96-.629.736-1.456 1.104-2.48 1.104zm-.304-1.072c.757 0 1.36-.277 1.808-.832.448-.565.672-1.285.672-2.16 0-.875-.224-1.59-.672-2.144-.448-.555-1.051-.832-1.808-.832-.459 0-.907.123-1.344.368-.427.235-.747.523-.96.864v3.488c.213.352.533.65.96.896.437.235.885.352 1.344.352zm12.452.88h-1.2v-1.152c-.661.896-1.53 1.344-2.608 1.344-1.024 0-1.856-.363-2.496-1.088-.629-.736-.944-1.723-.944-2.96 0-1.227.315-2.208.944-2.944.64-.747 1.472-1.12 2.496-1.12 1.067 0 1.936.453 2.608 1.36v-4.112h1.2V26zm-3.52-.88c.47 0 .918-.117 1.344-.352.427-.235.752-.523.976-.864V20.4c-.224-.352-.554-.645-.992-.88a2.627 2.627 0 00-1.328-.368c-.757 0-1.36.283-1.808.848-.448.555-.672 1.27-.672 2.144 0 .875.224 1.59.672 2.144.448.555 1.051.832 1.808.832zm7.46.88h-1.2v-6.672h-1.28v-1.056h1.28v-.592c0-.79.197-1.403.592-1.84.405-.448.954-.672 1.648-.672.661 0 1.205.197 1.632.592l-.496.784a1.411 1.411 0 00-.96-.384c-.395 0-.699.133-.912.4-.203.256-.304.63-.304 1.12v.592h1.568v1.056h-1.568V26z" fill="#1A1A1A"/><path d="M5 1h169v-2H5v2zm173 4v32h2V5h-2zm-4 36H5v2h169v-2zM1 37V5h-2v32h2zm4 4a4 4 0 01-4-4h-2a6 6 0 006 6v-2zm173-4a4 4 0 01-4 4v2a6 6 0 006-6h-2zm-4-36a4 4 0 014 4h2a6 6 0 00-6-6v2zM5-1a6 6 0 00-6 6h2a4 4 0 014-4v-2z" fill="#DCDCDC"/></svg>
